X:100
M:2/4
L:1/8
K:A
|: egbg | aedc | fdcB | ecBA | defd | cdec | dbBg | a2A2 :|

